X:2
T:Heathery Cruach, The
T:An Cruach Fraoch
T:John Mhosai's
T:John Mhosey McGinley's
T:Johnny Mhosai's
T:Ladies Of Tullybardee
T:Monaghan Switch
R:reel
M:4/4
L:1/8
K:Dmaj
|:Bc|d2AG FDAG|FDAF E2Bc|d2AG FDAG|FGAF Dgfe|
d2AG FDAG|FDAF E2FG|ABAG FDDE|FGAF D2:|
|:ed|cAA2 cAGB|cBcd efed|cAA2 cAGB|EFGE Dfed|
cAA2 cAGB|cBcd efe2|f2ed cAA2|EFGE A2:|
